X:1
T:Reel Amixo
R:Reel
M:2/2
K:Amix
f |: eAcA eAcA | dcBG Bdcd | eAcA eAcA |1 f/g/aed cAAf :| f/g/aed cAAA |
  |: e3f gage | dcBG Bdcd | edef gage |1 aefd cAAA :| aefd cAAf |
